X: 22747
T: Land O' The Leal, The
R: reel
M: 4/4
K: Gmajor
D4 D3 B,|D3 E G3 F|E4 E3 D|E3 F G2 A2|
B4 A4|G4 B3A|G4 E3 D|D8|
B4 B3 A|B3 c d3 B|A4 A3 G|A3 B c3 e|
d2 B2 A3 G|G4 B3 A|G4 E3 D|D8||

